resources/svg/china-railway-fill.svg

<svg fill="currentColor" viewBox="0 0 24 24" xmlns="http://www.w3.org/2000/svg"><path d="M11 19V13L9 12V9H15V12L13 13V19L18 20V22H6V20L11 19ZM10 2.22302V1H14V2.22302C18.008 3.13247 21 6.71683 21 11C21 14.1235 19.4088 16.8754 16.9928 18.4892L15.8833 16.825C17.7624 15.5697 19 13.4294 19 11C19 7.13401 15.866 4 12 4C8.13401 4 5 7.13401 5 11C5 13.4294 6.23758 15.5697 8.11669 16.825L7.00717 18.4892C4.59118 16.8754 3 14.1235 3 11C3 6.71683 5.99202 3.13247 10 2.22302Z"/></svg>

<svg xmlns="http://www.w3.org/2000/svg" viewBox="0 0 24 24" fill="currentColor">
    <g>
        <path fill="none" d="M0 0h24v24H0z"/>
        <path d="M11 19v-6l-2-1V9h6v3l-2 1v6l5 1v2H6v-2l5-1zM10 2.223V1h4v1.223a9.003 9.003 0 0 1 2.993 16.266l-1.11-1.664a7 7 0 1 0-7.767 0l-1.109 1.664A9.003 9.003 0 0 1 10 2.223z"/>
    </g>
</svg>
